img/line_arrow.svg

<svg width="961" height="25" viewBox="0 0 961 25" fill="none" xmlns="http://www.w3.org/2000/svg">
<path d="M959 23V24.5C959.828 24.5 960.5 23.8284 960.5 23H959ZM12 23H10.5C10.5 23.8284 11.1716 24.5 12 24.5V23ZM13.0607 0.93934C12.4749 0.353553 11.5251 0.353553 10.9393 0.93934L1.3934 10.4853C0.807611 11.0711 0.807611 12.0208 1.3934 12.6066C1.97919 13.1924 2.92893 13.1924 3.51472 12.6066L12 4.12132L20.4853 12.6066C21.0711 13.1924 22.0208 13.1924 22.6066 12.6066C23.1924 12.0208 23.1924 11.0711 22.6066 10.4853L13.0607 0.93934ZM957.5 2V23H960.5V2H957.5ZM959 21.5H12V24.5H959V21.5ZM13.5 23V2H10.5V23H13.5Z" fill="#4CA7DE"/>
</svg>

<svg width="961" height="25" fill="none" xmlns="http://www.w3.org/2000/svg"><path d="M959 23v1.5a1.5 1.5 0 0 0 1.5-1.5H959ZM12 23h-1.5a1.5 1.5 0 0 0 1.5 1.5V23ZM13.06.94a1.5 1.5 0 0 0-2.12 0l-9.547 9.545a1.5 1.5 0 1 0 2.122 2.122L12 4.12l8.485 8.486a1.5 1.5 0 1 0 2.122-2.122L13.06.94ZM957.5 2v21h3V2h-3Zm1.5 19.5H12v3h947v-3ZM13.5 23V2h-3v21h3Z" fill="#4CA7DE"/></svg>
